src/assets/icons/tasks-projects-goals,simple,inbox.svg

<svg width="48" height="48" viewBox="0 0 48 48" fill="none" xmlns="http://www.w3.org/2000/svg">
<rect opacity="0.2" x="5" y="5" width="38" height="38" rx="4" fill="black"/>
<rect x="12" y="12" width="24" height="24" rx="2" stroke="black" stroke-width="4"/>
<path d="M10 27H14.047C15.3018 27 15.9292 27 16.4247 27.3202C16.9202 27.6403 17.178 28.2123 17.6937 29.3563L17.78 29.5479C18.2957 30.6919 18.5535 31.2638 19.049 31.584C19.5445 31.9042 20.1719 31.9042 21.4267 31.9042H26.8951C28.0003 31.9042 28.553 31.9042 29.0112 31.6449C29.4695 31.3857 29.7542 30.912 30.3235 29.9647L30.9396 28.9395C31.509 27.9922 31.7937 27.5185 32.2519 27.2592C32.7102 27 33.2628 27 34.3681 27H38V30C38 33.7712 38 35.6569 36.8284 36.8284C35.6569 38 33.7712 38 30 38H18C14.2288 38 12.3431 38 11.1716 36.8284C10 35.6569 10 33.7712 10 30V27Z" fill="black"/>
</svg>

<svg xmlns="http://www.w3.org/2000/svg" width="48" height="48" fill="none" viewBox="0 0 48 48">
  <rect width="38" height="38" x="5" y="5" fill="#000" opacity=".2" rx="4"/>
  <rect width="24" height="24" x="12" y="12" stroke="#000" stroke-width="4" rx="2"/>
  <path fill="#000" d="M10 27h4.047c1.255 0 1.882 0 2.378.32.495.32.753.892 1.269 2.036l.086.192c.516 1.144.773 1.716 1.269 2.036.495.32 1.123.32 2.378.32h5.468c1.105 0 1.658 0 2.116-.26.459-.258.743-.732 1.313-1.68l.616-1.024c.569-.948.854-1.422 1.312-1.68.458-.26 1.01-.26 2.116-.26H38v3c0 3.771 0 5.657-1.172 6.828C35.657 38 33.771 38 30 38H18c-3.771 0-5.657 0-6.828-1.172C10 35.657 10 33.771 10 30v-3z"/>
</svg>
